assets/img/icons_pokemon/ghost.svg

<svg width="256" height="256" viewBox="0 0 256 256" fill="none" xmlns="http://www.w3.org/2000/svg">
<g clip-path="url(#clip0_57_742)">
<path d="M128 256C198.692 256 256 198.692 256 128C256 57.3075 198.692 0 128 0C57.3075 0 0 57.3075 0 128C0 198.692 57.3075 256 128 256Z" fill="#6F4570"/>
<path d="M181.32 129.18C198.82 126.93 208.26 133.49 210.95 149.1C211.3 151.12 211.84 153.19 210 154.61C208.18 156.01 206.03 155.51 204.51 154.08C201.08 150.87 198.36 151.23 195.28 154.73C183.85 167.76 183.79 167.7 169.67 158.4C162.44 167.7 156.27 177.93 147.51 186.16C132.27 200.48 123.58 200.52 108.37 186.04C99.8699 177.94 93.5199 168.23 86.5099 158.44C85.1699 159.05 83.8799 159.36 82.9399 160.11C71.8599 169.06 70.4299 168.97 62.2099 157.09C59.1999 152.75 56.5999 149.39 51.3199 154.19C49.7699 155.6 47.6199 155.98 45.8599 154.46C44.0899 152.93 44.7499 150.9 45.1299 148.9C48.0399 133.37 56.7299 127.34 75.0099 128.95C73.4499 107.34 78.6599 88.1602 96.0499 73.8202C106.25 65.4202 117.93 61.4902 131.13 62.2002C161.22 63.8002 179.97 88.5602 181.33 129.18H181.32Z" fill="white"/>
<path d="M97.2001 100.05C97.1501 96.29 97.3001 92.33 101.4 90.8C105.5 89.26 108.34 92.19 110.76 94.96C115.79 100.72 118.29 107.57 117.35 115.16C116.5 122.02 111.37 123.77 106.02 119.31C100.05 114.33 97.3601 107.75 97.2001 100.06V100.05Z" fill="#785279"/>
<path d="M158.77 100.6C158.51 107.91 155.81 114.07 150.35 119.06C148.25 120.98 146.03 122.36 143.23 121.56C139.9 120.6 138.7 117.7 138.52 114.62C138.1 107.38 140.21 100.8 144.95 95.29C147.54 92.27 150.57 88.92 155.09 91.02C158.98 92.83 158.89 96.88 158.78 100.61L158.77 100.6Z" fill="#785279"/>
</g>
<defs>
<clipPath id="clip0_57_742">
<rect width="256" height="256" fill="white"/>
</clipPath>
</defs>
</svg>

<?xml version="1.0" encoding="UTF-8"?>
<svg id="Layer_1" data-name="Layer 1" xmlns="http://www.w3.org/2000/svg" viewBox="0 0 256 256">
  <defs>
    <style>
      .cls-1 {
        fill: #fff;
      }

      .cls-2 {
        fill: #6f4570;
      }

      .cls-3 {
        fill: #785279;
      }
    </style>
  </defs>
  <circle class="cls-2" cx="128" cy="128" r="128"/>
  <path class="cls-1" d="M181.32,129.18c17.5-2.25,26.94,4.31,29.63,19.92,.35,2.02,.89,4.09-.95,5.51-1.82,1.4-3.97,.9-5.49-.53-3.43-3.21-6.15-2.85-9.23,.65-11.43,13.03-11.49,12.97-25.61,3.67-7.23,9.3-13.4,19.53-22.16,27.76-15.24,14.32-23.93,14.36-39.14-.12-8.5-8.1-14.85-17.81-21.86-27.6-1.34,.61-2.63,.92-3.57,1.67-11.08,8.95-12.51,8.86-20.73-3.02-3.01-4.34-5.61-7.7-10.89-2.9-1.55,1.41-3.7,1.79-5.46,.27-1.77-1.53-1.11-3.56-.73-5.56,2.91-15.53,11.6-21.56,29.88-19.95-1.56-21.61,3.65-40.79,21.04-55.13,10.2-8.4,21.88-12.33,35.08-11.62,30.09,1.6,48.84,26.36,50.2,66.98Z"/>
  <path class="cls-3" d="M97.2,100.05c-.05-3.76,.1-7.72,4.2-9.25,4.1-1.54,6.94,1.39,9.36,4.16,5.03,5.76,7.53,12.61,6.59,20.2-.85,6.86-5.98,8.61-11.33,4.15-5.97-4.98-8.66-11.56-8.82-19.25Z"/>
  <path class="cls-3" d="M158.77,100.6c-.26,7.31-2.96,13.47-8.42,18.46-2.1,1.92-4.32,3.3-7.12,2.5-3.33-.96-4.53-3.86-4.71-6.94-.42-7.24,1.69-13.82,6.43-19.33,2.59-3.02,5.62-6.37,10.14-4.27,3.89,1.81,3.8,5.86,3.69,9.59Z"/>
</svg>
